img/svg/16/net/hotjava.svg

<svg xmlns="http://www.w3.org/2000/svg" viewBox="0 0 16 16" enable-background="new 0 0 16 16"><path d="M8 7.467l-3.733-3.734 3.733-3.733 3.733 3.733-3.733 3.734zm8 .533l-3.733-3.733-3.734 3.733 3.733 3.733 3.734-3.733zm-8.533 0l-3.734-3.733-3.733 3.733 3.733 3.733 3.734-3.733zm4.266 4.267l-3.733-3.734-3.733 3.733 3.733 3.734 3.733-3.733z" fill="#ccc"/></svg>

<svg xmlns="http://www.w3.org/2000/svg" viewBox="0 0 16 16"><path fill="#ccc" d="M8 7.467 4.267 3.733 8 0l3.733 3.733L8 7.467zM16 8l-3.733-3.733L8.533 8l3.733 3.733L16 8zM7.467 8 3.733 4.267 0 8l3.733 3.733L7.467 8zm4.266 4.267L8 8.533l-3.733 3.733L8 16l3.733-3.733z"/></svg>
